remix/Media/radio-line.svg

<svg viewBox="0 0 24 24" fill="currentColor" xmlns="http://www.w3.org/2000/svg"><path d="M17 10V8H15V10H5V6H19V10H17ZM6 3V1H8V3H21.0082C21.556 3 22 3.44495 22 3.9934V20.0066C22 20.5552 21.5447 21 21.0082 21H2.9918C2.44405 21 2 20.5551 2 20.0066V3.9934C2 3.44476 2.45531 3 2.9918 3H6ZM4 5V19H20V5H4ZM8 18C6.34315 18 5 16.6569 5 15C5 13.3431 6.34315 12 8 12C9.65685 12 11 13.3431 11 15C11 16.6569 9.65685 18 8 18Z"/></svg>

<svg viewBox="0 0 24 24" xmlns="http://www.w3.org/2000/svg"><path fill="none" d="M0 0h24v24H0Z"/><path d="M17 10V8h-2v2H5V6h14v4h-2ZM6 3V1h2v2h13.008c.54 0 .99.44.99.99V20v0c-.01.54-.45.98-1 .99H2.98v0c-.55-.01-1-.45-1-1V3.97v0c0-.55.44-.99.992-1h3ZM4 5v14h16V5H4Zm4 13v0c-1.66 0-3-1.35-3-3 0-1.66 1.34-3 3-3v0c1.65 0 3 1.34 3 3 0 1.65-1.35 3-3 3Z"/></svg>
